X: 27118
T: Miss Martin's Wedding
R: reel
M: 4/4
K: Amixolydian
A2 a2 gefg|efdf eAcA|B2 fg dGfg|dGfg dGBG|
A2 a2 gefg|efdf eAcA|d2 fd cdec|1 dBGB A3 B:|2 dGBG A3 c||
|:eA (3AAA eAcA|eA (3AAA eAcA|dG (3GGG dGBd|ef (3fff fedB|
eA (3AAA eAcA|eA (3AAA eAcA|d2 fd cdec|1 dBGB A3 c:|2 dGBG A3 B||

